Newaita-dark/apps/16/kget.svg

<?xml version="1.0" encoding="UTF-8"?>
<svg xmlns="http://www.w3.org/2000/svg" xmlns:xlink="http://www.w3.org/1999/xlink" width="16px" height="16px" viewBox="0 0 16 16" version="1.1">
<defs>
<radialGradient id="radial0" gradientUnits="userSpaceOnUse" cx="450.908936" cy="189.579361" fx="450.908936" fy="189.579361" r="21.166656" gradientTransform="matrix(0.0000000870852,-0.0390662,-0.0703192,-0.0000000507693,21.103913,31.797666)">
<stop offset="0" style="stop-color:rgb(0%,0%,0%);stop-opacity:0.313726;"/>
<stop offset="0.222222" style="stop-color:rgb(0%,0%,0%);stop-opacity:0.27451;"/>
<stop offset="1" style="stop-color:rgb(0%,0%,0%);stop-opacity:0;"/>
</radialGradient>
<radialGradient id="radial1" gradientUnits="userSpaceOnUse" cx="450.908936" cy="189.579361" fx="450.908936" fy="189.579361" r="21.166656" gradientTransform="matrix(-0.0000000870852,0.0390662,0.0703192,0.0000000507693,-5.227395,-3.763739)">
<stop offset="0" style="stop-color:rgb(0%,0%,0%);stop-opacity:0.313726;"/>
<stop offset="0.222222" style="stop-color:rgb(0%,0%,0%);stop-opacity:0.27451;"/>
<stop offset="1" style="stop-color:rgb(0%,0%,0%);stop-opacity:0;"/>
</radialGradient>
<radialGradient id="radial2" gradientUnits="userSpaceOnUse" cx="450.908936" cy="189.579361" fx="450.908936" fy="189.579361" r="21.166656" gradientTransform="matrix(-0.0000000870852,-0.0390662,0.0703192,-0.0000000507693,-5.227395,31.797666)">
<stop offset="0" style="stop-color:rgb(0%,0%,0%);stop-opacity:0.313726;"/>
<stop offset="0.222222" style="stop-color:rgb(0%,0%,0%);stop-opacity:0.27451;"/>
<stop offset="1" style="stop-color:rgb(0%,0%,0%);stop-opacity:0;"/>
</radialGradient>
<radialGradient id="radial3" gradientUnits="userSpaceOnUse" cx="450.908936" cy="189.579361" fx="450.908936" fy="189.579361" r="21.166656" gradientTransform="matrix(0.0000000870852,0.0390662,-0.0703192,0.0000000507693,21.103912,-3.76374)">
<stop offset="0" style="stop-color:rgb(0%,0%,0%);stop-opacity:0.313726;"/>
<stop offset="0.222222" style="stop-color:rgb(0%,0%,0%);stop-opacity:0.27451;"/>
<stop offset="1" style="stop-color:rgb(0%,0%,0%);stop-opacity:0;"/>
</radialGradient>
<filter id="alpha" filterUnits="objectBoundingBox" x="0%" y="0%" width="100%" height="100%">
  <feColorMatrix type="matrix" in="SourceGraphic" values="0 0 0 0 1 0 0 0 0 1 0 0 0 0 1 0 0 0 1 0"/>
</filter>
<mask id="mask0">
  <g filter="url(#alpha)">
<rect x="0" y="0" width="16" height="16" style="fill:rgb(0%,0%,0%);fill-opacity:0.99;stroke:none;"/>
  </g>
</mask>
<linearGradient id="linear0" gradientUnits="userSpaceOnUse" x1="960" y1="1695.118164" x2="960" y2="175.118118" gradientTransform="matrix(0.00826902,0,0,0.00826902,0,0)">
<stop offset="0" style="stop-color:rgb(14.901961%,77.64706%,85.490197%);stop-opacity:1;"/>
<stop offset="1" style="stop-color:rgb(30.19608%,81.568629%,88.235295%);stop-opacity:1;"/>
</linearGradient>
<clipPath id="clip1">
  <rect x="0" y="0" width="16" height="16"/>
</clipPath>
<g id="surface5" clip-path="url(#clip1)">
<path style=" stroke:none;fill-rule:nonzero;fill:url(#linear0);" d="M 5.953125 1.449219 C 5.585938 1.449219 5.292969 1.742188 5.292969 2.109375 L 5.292969 8.726562 L 3.308594 8.726562 C 2.695312 8.726562 2.410156 9.488281 2.878906 9.886719 L 7.507812 13.859375 C 7.753906 14.070312 8.121094 14.070312 8.367188 13.859375 L 13 9.886719 C 13.464844 9.488281 13.183594 8.726562 12.570312 8.726562 L 10.585938 8.726562 L 10.585938 2.109375 C 10.585938 1.742188 10.289062 1.449219 9.921875 1.449219 Z M 5.953125 1.449219 "/>
</g>
<mask id="mask1">
  <g filter="url(#alpha)">
<rect x="0" y="0" width="16" height="16" style="fill:rgb(0%,0%,0%);fill-opacity:0.99;stroke:none;"/>
  </g>
</mask>
<clipPath id="clip2">
  <rect x="0" y="0" width="16" height="16"/>
</clipPath>
<g id="surface8" clip-path="url(#clip2)">
<path style=" stroke:none;fill-rule:nonzero;fill:rgb(100%,100%,100%);fill-opacity:0.392157;" d="M 5.953125 1.449219 C 5.585938 1.449219 5.292969 1.742188 5.292969 2.109375 L 5.292969 2.359375 C 5.292969 1.992188 5.585938 1.695312 5.953125 1.695312 L 9.921875 1.695312 C 10.289062 1.695312 10.585938 1.992188 10.585938 2.359375 L 10.585938 2.109375 C 10.585938 1.742188 10.289062 1.449219 9.921875 1.449219 Z M 3.308594 8.726562 C 2.855469 8.726562 2.582031 9.136719 2.65625 9.515625 C 2.710938 9.226562 2.953125 8.972656 3.308594 8.972656 L 5.292969 8.972656 L 5.292969 8.726562 Z M 10.585938 8.726562 L 10.585938 8.972656 L 12.570312 8.972656 C 12.921875 8.972656 13.164062 9.226562 13.21875 9.515625 C 13.292969 9.136719 13.019531 8.726562 12.570312 8.726562 Z M 10.585938 8.726562 "/>
</g>
<mask id="mask2">
  <g filter="url(#alpha)">
<rect x="0" y="0" width="16" height="16" style="fill:rgb(0%,0%,0%);fill-opacity:0.99;stroke:none;"/>
  </g>
</mask>
<clipPath id="clip3">
  <rect x="0" y="0" width="16" height="16"/>
</clipPath>
<g id="surface11" clip-path="url(#clip3)">
<path style=" stroke:none;fill-rule:nonzero;fill:rgb(0%,0%,0%);fill-opacity:0.235294;" d="M 2.648438 9.332031 C 2.628906 9.527344 2.699219 9.734375 2.878906 9.886719 L 7.507812 13.859375 C 7.753906 14.070312 8.121094 14.070312 8.367188 13.859375 L 13 9.886719 C 13.179688 9.734375 13.246094 9.527344 13.230469 9.332031 C 13.214844 9.488281 13.140625 9.644531 13 9.765625 L 8.367188 13.734375 C 8.121094 13.949219 7.753906 13.949219 7.507812 13.734375 L 2.878906 9.765625 C 2.734375 9.644531 2.664062 9.488281 2.648438 9.332031 Z M 2.648438 9.332031 "/>
</g>
<mask id="mask3">
  <g filter="url(#alpha)">
<rect x="0" y="0" width="16" height="16" style="fill:rgb(0%,0%,0%);fill-opacity:0.99;stroke:none;"/>
  </g>
</mask>
<linearGradient id="linear1" gradientUnits="userSpaceOnUse" x1="254" y1="-126.333344" x2="254" y2="-105.166672" gradientTransform="matrix(0.031253,0,0,0.031253,0,6.719392)">
<stop offset="0" style="stop-color:rgb(0%,67.450982%,75.686276%);stop-opacity:1;"/>
<stop offset="1" style="stop-color:rgb(0%,73.725492%,83.137256%);stop-opacity:1;"/>
</linearGradient>
<clipPath id="clip4">
  <rect x="0" y="0" width="16" height="16"/>
</clipPath>
<g id="surface14" clip-path="url(#clip4)">
<path style=" stroke:none;fill-rule:nonzero;fill:url(#linear1);" d="M 5.292969 2.769531 L 10.585938 2.769531 L 10.585938 3.433594 L 5.292969 3.433594 Z M 5.292969 2.769531 "/>
</g>
<mask id="mask4">
  <g filter="url(#alpha)">
<rect x="0" y="0" width="16" height="16" style="fill:rgb(0%,0%,0%);fill-opacity:0.99;stroke:none;"/>
  </g>
</mask>
<linearGradient id="linear2" gradientUnits="userSpaceOnUse" x1="254" y1="-126.333344" x2="254" y2="-105.166672" gradientTransform="matrix(0.031253,0,0,0.031253,0,8.042435)">
<stop offset="0" style="stop-color:rgb(0%,67.450982%,75.686276%);stop-opacity:1;"/>
<stop offset="1" style="stop-color:rgb(0%,73.725492%,83.137256%);stop-opacity:1;"/>
</linearGradient>
<clipPath id="clip5">
  <rect x="0" y="0" width="16" height="16"/>
</clipPath>
<g id="surface17" clip-path="url(#clip5)">
<path style=" stroke:none;fill-rule:nonzero;fill:url(#linear2);" d="M 5.292969 4.09375 L 10.585938 4.09375 L 10.585938 4.753906 L 5.292969 4.753906 Z M 5.292969 4.09375 "/>
</g>
<mask id="mask5">
  <g filter="url(#alpha)">
<rect x="0" y="0" width="16" height="16" style="fill:rgb(0%,0%,0%);fill-opacity:0.99;stroke:none;"/>
  </g>
</mask>
<linearGradient id="linear3" gradientUnits="userSpaceOnUse" x1="254" y1="-126.333344" x2="254" y2="-105.166672" gradientTransform="matrix(0.031253,0,0,0.031253,0,9.365478)">
<stop offset="0" style="stop-color:rgb(0%,67.450982%,75.686276%);stop-opacity:1;"/>
<stop offset="1" style="stop-color:rgb(0%,73.725492%,83.137256%);stop-opacity:1;"/>
</linearGradient>
<clipPath id="clip6">
  <rect x="0" y="0" width="16" height="16"/>
</clipPath>
<g id="surface20" clip-path="url(#clip6)">
<path style=" stroke:none;fill-rule:nonzero;fill:url(#linear3);" d="M 5.292969 5.417969 L 10.585938 5.417969 L 10.585938 6.078125 L 5.292969 6.078125 Z M 5.292969 5.417969 "/>
</g>
<mask id="mask6">
  <g filter="url(#alpha)">
<rect x="0" y="0" width="16" height="16" style="fill:rgb(0%,0%,0%);fill-opacity:0.99;stroke:none;"/>
  </g>
</mask>
<clipPath id="clip7">
  <rect x="0" y="0" width="16" height="16"/>
</clipPath>
<g id="surface23" clip-path="url(#clip7)">
<path style=" stroke:none;fill-rule:nonzero;fill:rgb(100%,100%,100%);fill-opacity:0.392157;" d="M 5.292969 6.078125 L 10.585938 6.078125 L 10.585938 6.242188 L 5.292969 6.242188 Z M 5.292969 6.078125 "/>
</g>
<mask id="mask7">
  <g filter="url(#alpha)">
<rect x="0" y="0" width="16" height="16" style="fill:rgb(0%,0%,0%);fill-opacity:0.99;stroke:none;"/>
  </g>
</mask>
<clipPath id="clip8">
  <rect x="0" y="0" width="16" height="16"/>
</clipPath>
<g id="surface26" clip-path="url(#clip8)">
<path style=" stroke:none;fill-rule:nonzero;fill:rgb(100%,100%,100%);fill-opacity:0.392157;" d="M 5.292969 4.753906 L 10.585938 4.753906 L 10.585938 4.921875 L 5.292969 4.921875 Z M 5.292969 4.753906 "/>
</g>
<mask id="mask8">
  <g filter="url(#alpha)">
<rect x="0" y="0" width="16" height="16" style="fill:rgb(0%,0%,0%);fill-opacity:0.99;stroke:none;"/>
  </g>
</mask>
<clipPath id="clip9">
  <rect x="0" y="0" width="16" height="16"/>
</clipPath>
<g id="surface29" clip-path="url(#clip9)">
<path style=" stroke:none;fill-rule:nonzero;fill:rgb(100%,100%,100%);fill-opacity:0.392157;" d="M 5.292969 3.433594 L 10.585938 3.433594 L 10.585938 3.597656 L 5.292969 3.597656 Z M 5.292969 3.433594 "/>
</g>
<mask id="mask9">
  <g filter="url(#alpha)">
<rect x="0" y="0" width="16" height="16" style="fill:rgb(0%,0%,0%);fill-opacity:0.99;stroke:none;"/>
  </g>
</mask>
<clipPath id="clip10">
  <rect x="0" y="0" width="16" height="16"/>
</clipPath>
<g id="surface32" clip-path="url(#clip10)">
<path style=" stroke:none;fill-rule:nonzero;fill:rgb(0%,0%,0%);fill-opacity:0.235294;" d="M 5.292969 2.769531 L 10.585938 2.769531 L 10.585938 2.9375 L 5.292969 2.9375 Z M 5.292969 2.769531 "/>
</g>
<mask id="mask10">
  <g filter="url(#alpha)">
<rect x="0" y="0" width="16" height="16" style="fill:rgb(0%,0%,0%);fill-opacity:0.99;stroke:none;"/>
  </g>
</mask>
<clipPath id="clip11">
  <rect x="0" y="0" width="16" height="16"/>
</clipPath>
<g id="surface35" clip-path="url(#clip11)">
<path style=" stroke:none;fill-rule:nonzero;fill:rgb(0%,0%,0%);fill-opacity:0.235294;" d="M 5.292969 4.09375 L 10.585938 4.09375 L 10.585938 4.257812 L 5.292969 4.257812 Z M 5.292969 4.09375 "/>
</g>
<mask id="mask11">
  <g filter="url(#alpha)">
<rect x="0" y="0" width="16" height="16" style="fill:rgb(0%,0%,0%);fill-opacity:0.99;stroke:none;"/>
  </g>
</mask>
<clipPath id="clip12">
  <rect x="0" y="0" width="16" height="16"/>
</clipPath>
<g id="surface38" clip-path="url(#clip12)">
<path style=" stroke:none;fill-rule:nonzero;fill:rgb(0%,0%,0%);fill-opacity:0.235294;" d="M 5.292969 5.417969 L 10.585938 5.417969 L 10.585938 5.582031 L 5.292969 5.582031 Z M 5.292969 5.417969 "/>
</g>
<mask id="mask12">
  <g filter="url(#alpha)">
<rect x="0" y="0" width="16" height="16" style="fill:rgb(0%,0%,0%);fill-opacity:0.99;stroke:none;"/>
  </g>
</mask>
<clipPath id="clip13">
  <rect x="0" y="0" width="16" height="16"/>
</clipPath>
<g id="surface41" clip-path="url(#clip13)">
<path style=" stroke:none;fill-rule:nonzero;fill:rgb(12.941177%,12.941177%,12.941177%);fill-opacity:1;" d="M 5.953125 1.402344 C 5.5625 1.402344 5.246094 1.71875 5.246094 2.109375 L 5.246094 8.679688 L 3.308594 8.679688 C 2.980469 8.679688 2.738281 8.882812 2.644531 9.140625 C 2.546875 9.398438 2.597656 9.710938 2.847656 9.925781 L 7.476562 13.894531 C 7.742188 14.121094 8.132812 14.121094 8.398438 13.894531 L 13.03125 9.925781 C 13.277344 9.710938 13.328125 9.398438 13.234375 9.140625 C 13.136719 8.882812 12.894531 8.679688 12.570312 8.679688 L 10.632812 8.679688 L 10.632812 2.109375 C 10.632812 1.71875 10.316406 1.402344 9.921875 1.402344 Z M 5.953125 1.496094 L 9.921875 1.496094 C 10.265625 1.496094 10.539062 1.769531 10.539062 2.109375 L 10.539062 8.726562 C 10.539062 8.75 10.558594 8.773438 10.585938 8.773438 L 12.570312 8.773438 C 12.855469 8.773438 13.0625 8.949219 13.144531 9.171875 C 13.226562 9.398438 13.1875 9.664062 12.96875 9.851562 L 8.339844 13.820312 C 8.109375 14.019531 7.769531 14.019531 7.539062 13.820312 L 2.90625 9.851562 C 2.6875 9.664062 2.648438 9.398438 2.730469 9.171875 C 2.8125 8.949219 3.019531 8.773438 3.308594 8.773438 L 5.292969 8.773438 C 5.316406 8.773438 5.339844 8.75 5.339844 8.726562 L 5.339844 2.109375 C 5.339844 1.769531 5.613281 1.496094 5.953125 1.496094 Z M 5.953125 1.496094 "/>
</g>
</defs>
<g id="surface1">
<path style=" stroke:none;fill-rule:nonzero;fill:url(#radial0);" d="M 7.9375 14.015625 L 9.261719 14.015625 L 9.261719 13.355469 L 7.9375 13.355469 Z M 7.9375 14.015625 "/>
<path style=" stroke:none;fill-rule:nonzero;fill:url(#radial1);" d="M 7.9375 14.015625 L 6.613281 14.015625 L 6.613281 14.679688 L 7.9375 14.679688 Z M 7.9375 14.015625 "/>
<path style=" stroke:none;fill-rule:nonzero;fill:url(#radial2);" d="M 7.9375 14.015625 L 6.613281 14.015625 L 6.613281 13.355469 L 7.9375 13.355469 Z M 7.9375 14.015625 "/>
<path style=" stroke:none;fill-rule:nonzero;fill:url(#radial3);" d="M 7.9375 14.015625 L 9.261719 14.015625 L 9.261719 14.679688 L 7.9375 14.679688 Z M 7.9375 14.015625 "/>
<use xlink:href="#surface5" mask="url(#mask0)"/>
<use xlink:href="#surface8" mask="url(#mask1)"/>
<use xlink:href="#surface11" mask="url(#mask2)"/>
<use xlink:href="#surface14" mask="url(#mask3)"/>
<use xlink:href="#surface17" mask="url(#mask4)"/>
<use xlink:href="#surface20" mask="url(#mask5)"/>
<use xlink:href="#surface23" mask="url(#mask6)"/>
<use xlink:href="#surface26" mask="url(#mask7)"/>
<use xlink:href="#surface29" mask="url(#mask8)"/>
<use xlink:href="#surface32" mask="url(#mask9)"/>
<use xlink:href="#surface35" mask="url(#mask10)"/>
<use xlink:href="#surface38" mask="url(#mask11)"/>
<use xlink:href="#surface41" mask="url(#mask12)"/>
</g>
</svg>

<svg xmlns="http://www.w3.org/2000/svg" xmlns:xlink="http://www.w3.org/1999/xlink" width="16pt" height="16pt" viewBox="0 0 16 16"><defs><radialGradient id="s" gradientUnits="userSpaceOnUse" cx="450.909" cy="189.579" fx="450.909" fy="189.579" r="21.167" gradientTransform="matrix(0 -.03907 -.07032 0 21.104 31.798)"><stop offset="0" stop-opacity=".314"/><stop offset=".222" stop-opacity=".275"/><stop offset="1" stop-opacity="0"/></radialGradient><radialGradient id="t" gradientUnits="userSpaceOnUse" cx="450.909" cy="189.579" fx="450.909" fy="189.579" r="21.167" gradientTransform="matrix(0 .03907 .07032 0 -5.227 -3.764)"><stop offset="0" stop-opacity=".314"/><stop offset=".222" stop-opacity=".275"/><stop offset="1" stop-opacity="0"/></radialGradient><radialGradient id="u" gradientUnits="userSpaceOnUse" cx="450.909" cy="189.579" fx="450.909" fy="189.579" r="21.167" gradientTransform="matrix(0 -.03907 .07032 0 -5.227 31.798)"><stop offset="0" stop-opacity=".314"/><stop offset=".222" stop-opacity=".275"/><stop offset="1" stop-opacity="0"/></radialGradient><radialGradient id="v" gradientUnits="userSpaceOnUse" cx="450.909" cy="189.579" fx="450.909" fy="189.579" r="21.167" gradientTransform="matrix(0 .03907 -.07032 0 21.104 -3.764)"><stop offset="0" stop-opacity=".314"/><stop offset=".222" stop-opacity=".275"/><stop offset="1" stop-opacity="0"/></radialGradient><filter id="a" filterUnits="objectBoundingBox" x="0%" y="0%" width="100%" height="100%"><feColorMatrix in="SourceGraphic" values="0 0 0 0 1 0 0 0 0 1 0 0 0 0 1 0 0 0 1 0"/></filter><mask id="x"><path fill-opacity=".988" d="M0 0h16v16H0z" filter="url(#a)"/></mask><linearGradient id="c" gradientUnits="userSpaceOnUse" x1="960" y1="1695.118" x2="960" y2="175.118" gradientTransform="rotate(.882) scale(.00827)"><stop offset="0" stop-color="#26c6da"/><stop offset="1" stop-color="#4dd0e1"/></linearGradient><clipPath id="b"><path d="M0 0h16v16H0z"/></clipPath><g id="w" clip-path="url(#b)"><path d="M5.953 1.45a.657.657 0 0 0-.66.66v6.617H3.309c-.614 0-.899.761-.43 1.16l4.629 3.972c.246.211.613.211.86 0L13 9.887a.66.66 0 0 0-.43-1.16h-1.984V2.109a.66.66 0 0 0-.664-.66zm0 0" fill="url(#c)"/></g><mask id="z"><path fill-opacity=".988" d="M0 0h16v16H0z" filter="url(#a)"/></mask><clipPath id="d"><path d="M0 0h16v16H0z"/></clipPath><g id="y" clip-path="url(#d)"><path d="M5.953 1.45a.657.657 0 0 0-.66.66v.25a.66.66 0 0 1 .66-.665h3.969c.367 0 .664.297.664.664v-.25a.66.66 0 0 0-.664-.66zM3.31 8.726a.66.66 0 0 0-.653.789.656.656 0 0 1 .653-.543h1.984v-.246zm7.277 0v.246h1.984c.352 0 .594.254.649.543a.66.66 0 0 0-.649-.79zm0 0" fill="#fff" fill-opacity=".392"/></g><mask id="B"><path fill-opacity=".988" d="M0 0h16v16H0z" filter="url(#a)"/></mask><clipPath id="e"><path d="M0 0h16v16H0z"/></clipPath><g id="A" clip-path="url(#e)"><path d="M2.648 9.332c-.02.195.051.402.23.555l4.63 3.972c.246.211.613.211.86 0L13 9.887a.647.647 0 0 0 .23-.555.656.656 0 0 1-.23.434l-4.633 3.968a.653.653 0 0 1-.86 0L2.88 9.766a.64.64 0 0 1-.23-.434zm0 0" fill-opacity=".235"/></g><mask id="D"><path fill-opacity=".988" d="M0 0h16v16H0z" filter="url(#a)"/></mask><linearGradient id="g" gradientUnits="userSpaceOnUse" x1="254" y1="-126.333" x2="254" y2="-105.167" gradientTransform="matrix(.03125 0 0 .03125 0 6.72)"><stop offset="0" stop-color="#00acc1"/><stop offset="1" stop-color="#00bcd4"/></linearGradient><clipPath id="f"><path d="M0 0h16v16H0z"/></clipPath><g id="C" clip-path="url(#f)"><path d="M5.293 2.77h5.293v.664H5.293zm0 0" fill="url(#g)"/></g><mask id="F"><path fill-opacity=".988" d="M0 0h16v16H0z" filter="url(#a)"/></mask><linearGradient id="i" gradientUnits="userSpaceOnUse" x1="254" y1="-126.333" x2="254" y2="-105.167" gradientTransform="matrix(.03125 0 0 .03125 0 8.042)"><stop offset="0" stop-color="#00acc1"/><stop offset="1" stop-color="#00bcd4"/></linearGradient><clipPath id="h"><path d="M0 0h16v16H0z"/></clipPath><g id="E" clip-path="url(#h)"><path d="M5.293 4.094h5.293v.66H5.293zm0 0" fill="url(#i)"/></g><mask id="H"><path fill-opacity=".988" d="M0 0h16v16H0z" filter="url(#a)"/></mask><linearGradient id="k" gradientUnits="userSpaceOnUse" x1="254" y1="-126.333" x2="254" y2="-105.167" gradientTransform="matrix(.03125 0 0 .03125 0 9.365)"><stop offset="0" stop-color="#00acc1"/><stop offset="1" stop-color="#00bcd4"/></linearGradient><clipPath id="j"><path d="M0 0h16v16H0z"/></clipPath><g id="G" clip-path="url(#j)"><path d="M5.293 5.418h5.293v.66H5.293zm0 0" fill="url(#k)"/></g><mask id="J"><path fill-opacity=".988" d="M0 0h16v16H0z" filter="url(#a)"/></mask><clipPath id="l"><path d="M0 0h16v16H0z"/></clipPath><g id="I" clip-path="url(#l)"><path d="M5.293 6.078h5.293v.164H5.293zm0 0" fill="#fff" fill-opacity=".392"/></g><mask id="L"><path fill-opacity=".988" d="M0 0h16v16H0z" filter="url(#a)"/></mask><clipPath id="m"><path d="M0 0h16v16H0z"/></clipPath><g id="K" clip-path="url(#m)"><path d="M5.293 4.754h5.293v.168H5.293zm0 0" fill="#fff" fill-opacity=".392"/></g><mask id="N"><path fill-opacity=".988" d="M0 0h16v16H0z" filter="url(#a)"/></mask><clipPath id="n"><path d="M0 0h16v16H0z"/></clipPath><g id="M" clip-path="url(#n)"><path d="M5.293 3.434h5.293v.164H5.293zm0 0" fill="#fff" fill-opacity=".392"/></g><mask id="P"><path fill-opacity=".988" d="M0 0h16v16H0z" filter="url(#a)"/></mask><clipPath id="o"><path d="M0 0h16v16H0z"/></clipPath><g id="O" clip-path="url(#o)"><path d="M5.293 2.77h5.293v.167H5.293zm0 0" fill-opacity=".235"/></g><mask id="R"><path fill-opacity=".988" d="M0 0h16v16H0z" filter="url(#a)"/></mask><clipPath id="p"><path d="M0 0h16v16H0z"/></clipPath><g id="Q" clip-path="url(#p)"><path d="M5.293 4.094h5.293v.164H5.293zm0 0" fill-opacity=".235"/></g><mask id="T"><path fill-opacity=".988" d="M0 0h16v16H0z" filter="url(#a)"/></mask><clipPath id="q"><path d="M0 0h16v16H0z"/></clipPath><g id="S" clip-path="url(#q)"><path d="M5.293 5.418h5.293v.164H5.293zm0 0" fill-opacity=".235"/></g><mask id="V"><path fill-opacity=".988" d="M0 0h16v16H0z" filter="url(#a)"/></mask><clipPath id="r"><path d="M0 0h16v16H0z"/></clipPath><g id="U" clip-path="url(#r)"><path d="M5.953 1.402a.707.707 0 0 0-.707.707v6.57H3.31a.694.694 0 0 0-.664.462.695.695 0 0 0 .203.785l4.629 3.969a.71.71 0 0 0 .921 0l4.633-3.97a.708.708 0 0 0-.46-1.245h-1.938V2.11a.708.708 0 0 0-.711-.708zm0 .094h3.969c.344 0 .617.274.617.613v6.618c0 .023.02.046.047.046h1.984a.6.6 0 0 1 .575.399.602.602 0 0 1-.176.68l-4.63 3.968c-.23.2-.57.2-.8 0L2.906 9.852a.602.602 0 0 1-.176-.68.602.602 0 0 1 .579-.399h1.984a.05.05 0 0 0 .047-.046V2.109c0-.34.273-.613.613-.613zm0 0" fill="#212121"/></g></defs><path d="M7.938 14.016h1.324v-.66H7.937zm0 0" fill="url(#s)"/><path d="M7.938 14.016H6.612v.664h1.324zm0 0" fill="url(#t)"/><path d="M7.938 14.016H6.612v-.66h1.324zm0 0" fill="url(#u)"/><path d="M7.938 14.016h1.324v.664H7.937zm0 0" fill="url(#v)"/><use xlink:href="#w" mask="url(#x)"/><use xlink:href="#y" mask="url(#z)"/><use xlink:href="#A" mask="url(#B)"/><use xlink:href="#C" mask="url(#D)"/><use xlink:href="#E" mask="url(#F)"/><use xlink:href="#G" mask="url(#H)"/><use xlink:href="#I" mask="url(#J)"/><use xlink:href="#K" mask="url(#L)"/><use xlink:href="#M" mask="url(#N)"/><use xlink:href="#O" mask="url(#P)"/><use xlink:href="#Q" mask="url(#R)"/><use xlink:href="#S" mask="url(#T)"/><use xlink:href="#U" mask="url(#V)"/></svg>
